img/more2.svg

<svg width="20" height="20" viewBox="0 0 20 20" fill="none" xmlns="http://www.w3.org/2000/svg">
<path fill-rule="evenodd" clip-rule="evenodd" d="M6.3915 1.66663H13.6165C16.4415 1.66663 18.3332 3.64996 18.3332 6.59996V13.4091C18.3332 16.3508 16.4415 18.3333 13.6165 18.3333H6.3915C3.5665 18.3333 1.6665 16.3508 1.6665 13.4091V6.59996C1.6665 3.64996 3.5665 1.66663 6.3915 1.66663ZM9.9915 7.55079C9.59984 7.55079 9.27484 7.22496 9.27484 6.82579C9.27484 6.41746 9.59984 6.09246 10.0082 6.09246C10.4082 6.09246 10.7332 6.41746 10.7332 6.82579C10.7332 7.22496 10.4082 7.55079 9.9915 7.55079ZM10.7248 13.1508C10.7248 13.5508 10.3998 13.8758 9.9915 13.8758C9.5915 13.8758 9.2665 13.5508 9.2665 13.1508V9.46746C9.2665 9.06663 9.5915 8.73413 9.9915 8.73413C10.3998 8.73413 10.7248 9.06663 10.7248 9.46746V13.1508Z" fill="#FC6733"/>
</svg>

<svg width="20" height="20" viewBox="0 0 20 20" fill="none" xmlns="http://www.w3.org/2000/svg"><path fill-rule="evenodd" clip-rule="evenodd" d="M6.391 1.667h7.226c2.825 0 4.716 1.983 4.716 4.933v6.81c0 2.94-1.891 4.923-4.716 4.923H6.39c-2.825 0-4.724-1.982-4.724-4.924V6.6c0-2.95 1.9-4.933 4.724-4.933zm3.6 5.884a.724.724 0 0 1-.716-.725.73.73 0 1 1 .716.725zm.734 5.6c0 .4-.325.725-.733.725a.726.726 0 0 1-.726-.725V9.467c0-.4.325-.733.726-.733.408 0 .733.333.733.733v3.684z" fill="#FC6733"/></svg>
